src/assets/home/seed-holder.svg

<svg fill="none" height="220" viewBox="0 0 221 220" width="221" xmlns="http://www.w3.org/2000/svg" xmlns:xlink="http://www.w3.org/1999/xlink"><linearGradient id="a" gradientUnits="userSpaceOnUse" x1="110.5" x2="110.5" y1="47.9286" y2="220"><stop offset="0" stop-color="#fff" stop-opacity="0"/><stop offset="1" stop-color="#cec6ff"/></linearGradient><linearGradient id="b"><stop offset="0" stop-color="#0600ff" stop-opacity=".77"/><stop offset="1" stop-color="#0600ff" stop-opacity=".03"/></linearGradient><linearGradient id="c" gradientUnits="userSpaceOnUse" x1="95.6428" x2="95.6428" xlink:href="#b" y1="48.7144" y2="220.633"/><linearGradient id="d" gradientUnits="userSpaceOnUse" x1="125.357" x2="125.357" xlink:href="#b" y1="48.7144" y2="220.633"/><linearGradient id="e" gradientUnits="userSpaceOnUse" x1="111.561" x2="111.286" y1="93.8164" y2="123.969"><stop offset=".130821" stop-color="#fff"/><stop offset="1" stop-color="#a4a2f7" stop-opacity="0"/></linearGradient><mask id="f" height="220" maskUnits="userSpaceOnUse" width="221" x="0" y="0"><circle cx="110.5" cy="110" fill="url(#a)" r="110"/></mask><circle cx="110.5" cy="110" fill="url(#a)" r="110"/><g mask="url(#f)"><path d="m145.442 182.739c-3.751-5.916-8.025-8.554-13.86-8.554h-5.497v-23.255c7.628-4.488 14.084-10.641 18.823-17.926.983.893 2.27 1.421 3.959 1.421 2.51 0 6.039-3.933 8.502-7.612 2.479-3.702 5.131-9.067 5.131-13.023 0-7.644-5.626-9.87-8.907-10.024-.057-30.3641-25.787-55.0516-57.4072-55.0516-31.6197 0-57.3477 24.6875-57.4045 55.0546-3.2811.154-8.907 2.379-8.907 10.023 0 3.959 2.6491 9.323 5.1306 13.024 2.466 3.679 5.9922 7.611 8.5021 7.611 1.6896 0 2.9768-.53 3.9595-1.421 4.7644 7.328 11.27 13.509 18.9543 18.005v16.657c0 3.378-2.9948 6.127-6.6783 6.127h-6.0181c-6.8924 0-13.1555 2.237-17.6335 6.302-4.7799 4.337-7.3052 10.436-7.3052 17.635v22.901h64.2919 64.2914l-8.025-28.401c-.802-3.48-2.115-6.673-3.902-9.493z" fill="url(#c)"/><path d="m175.156 182.739c-3.751-5.916-8.025-8.554-13.86-8.554h-5.497v-23.255c7.628-4.488 14.084-10.641 18.823-17.926.983.893 2.27 1.421 3.96 1.421 2.509 0 6.038-3.933 8.502-7.612 2.478-3.702 5.13-9.067 5.13-13.023 0-7.644-5.626-9.87-8.907-10.024-.057-30.3641-25.787-55.0516-57.407-55.0516-31.6196 0-57.3477 24.6875-57.4044 55.0546-3.2812.154-8.9071 2.379-8.9071 10.023 0 3.959 2.6492 9.323 5.1306 13.024 2.4661 3.679 5.9923 7.611 8.5021 7.611 1.6896 0 2.9768-.53 3.9596-1.421 4.7643 7.328 11.2699 13.509 18.9543 18.005v16.657c0 3.378-2.9949 6.127-6.6784 6.127h-6.018c-6.8925 0-13.1555 2.237-17.6336 6.302-4.7798 4.337-7.3052 10.436-7.3052 17.635v22.901h64.2921 64.292l-8.025-28.401c-.803-3.48-2.115-6.673-3.903-9.493z" fill="url(#d)"/><path d="m98.844 103.367c.2975.065.5978.121.901.167 6.602 1.008 11.273 6.944 11.801 13.612 0 .012.007.017.018.017h.001c.012 0 .018-.005.019-.017.58-7.156 5.648-12.996 12.706-13.744.002-.001.003-.002.004-.004.001-.001.002-.003.002-.005 0-.003-.001-.005-.002-.006-.001-.002-.002-.003-.004-.004-3.031-.326-5.649-1.504-7.853-3.5331-2.868-2.6418-4.569-6.3021-4.852-10.2633-.001-.0044-.003-.0082-.007-.0109-.003-.0027-.008-.0042-.012-.0042s-.008.0015-.012.0042c-.003.0027-.006.0065-.007.0109-.462 7.0984-5.736 13.1364-12.7144 13.7904-.0028 0-.0047-.002-.0057-.006 0-.001 0-.002 0-.003-.0009-.002 0-.003.0029-.003.0047 0 .0094.001.0142.002z" fill="url(#e)"/></g></svg>

<svg width="221" height="220" viewBox="0 0 221 220" fill="none" xmlns="http://www.w3.org/2000/svg">
<circle cx="110.5" cy="110" r="110" fill="url(#paint0_linear_24_2110)"/>
<mask id="mask0_24_2110" style="mask-type:alpha" maskUnits="userSpaceOnUse" x="0" y="0" width="221" height="220">
<circle cx="110.5" cy="110" r="110" fill="url(#paint1_linear_24_2110)"/>
</mask>
<g mask="url(#mask0_24_2110)">
<path d="M145.442 182.739C141.691 176.823 137.417 174.185 131.582 174.185H126.085V150.93C133.713 146.442 140.169 140.289 144.908 133.004C145.891 133.897 147.178 134.425 148.867 134.425C151.377 134.425 154.906 130.492 157.369 126.813C159.848 123.111 162.5 117.746 162.5 113.79C162.5 106.146 156.874 103.92 153.593 103.766C153.536 73.4019 127.806 48.7144 96.1858 48.7144C64.5661 48.7144 38.8381 73.4019 38.7813 103.769C35.5002 103.923 29.8743 106.148 29.8743 113.792C29.8743 117.751 32.5234 123.115 35.0049 126.816C37.4709 130.495 40.9971 134.427 43.507 134.427C45.1966 134.427 46.4838 133.897 47.4665 133.006C52.2309 140.334 58.7365 146.515 66.4208 151.011V167.668C66.4208 171.046 63.426 173.795 59.7425 173.795H53.7244C46.832 173.795 40.5689 176.032 36.0909 180.097C31.311 184.434 28.7857 190.533 28.7857 197.732V220.633H93.0776H157.369L149.344 192.232C148.542 188.752 147.229 185.559 145.442 182.739Z" fill="url(#paint2_linear_24_2110)"/>
<path d="M175.156 182.739C171.405 176.823 167.131 174.185 161.296 174.185H155.799V150.93C163.427 146.442 169.883 140.289 174.622 133.004C175.605 133.897 176.892 134.425 178.582 134.425C181.091 134.425 184.62 130.492 187.084 126.813C189.562 123.111 192.214 117.746 192.214 113.79C192.214 106.146 186.588 103.92 183.307 103.766C183.25 73.4019 157.52 48.7144 125.9 48.7144C94.2804 48.7144 68.5523 73.4019 68.4956 103.769C65.2144 103.923 59.5885 106.148 59.5885 113.792C59.5885 117.751 62.2377 123.115 64.7191 126.816C67.1852 130.495 70.7114 134.427 73.2212 134.427C74.9108 134.427 76.198 133.897 77.1808 133.006C81.9451 140.334 88.4507 146.515 96.1351 151.011V167.668C96.1351 171.046 93.1402 173.795 89.4567 173.795H83.4387C76.5462 173.795 70.2832 176.032 65.8051 180.097C61.0253 184.434 58.4999 190.533 58.4999 197.732V220.633H122.792H187.084L179.059 192.232C178.256 188.752 176.944 185.559 175.156 182.739Z" fill="url(#paint3_linear_24_2110)"/>
<path d="M98.844 103.367C99.1415 103.432 99.4418 103.488 99.745 103.534C106.347 104.542 111.018 110.478 111.546 117.146C111.546 117.158 111.553 117.163 111.564 117.163H111.565C111.577 117.163 111.583 117.158 111.584 117.146C112.164 109.99 117.232 104.15 124.29 103.402C124.292 103.401 124.293 103.4 124.294 103.398C124.295 103.397 124.296 103.395 124.296 103.393C124.296 103.39 124.295 103.388 124.294 103.387C124.293 103.385 124.292 103.384 124.29 103.383C121.259 103.057 118.641 101.879 116.437 99.8499C113.569 97.2081 111.868 93.5478 111.585 89.5866C111.584 89.5822 111.582 89.5784 111.578 89.5757C111.575 89.573 111.57 89.5715 111.566 89.5715C111.562 89.5715 111.558 89.573 111.554 89.5757C111.551 89.5784 111.548 89.5822 111.547 89.5866C111.085 96.685 105.811 102.723 98.8326 103.377C98.8298 103.377 98.8279 103.375 98.8269 103.371C98.8269 103.37 98.8269 103.369 98.8269 103.368C98.826 103.366 98.8269 103.365 98.8298 103.365C98.8345 103.365 98.8392 103.366 98.844 103.367Z" fill="url(#paint4_linear_24_2110)"/>
</g>
<defs>
<linearGradient id="paint0_linear_24_2110" x1="110.5" y1="47.9286" x2="110.5" y2="220" gradientUnits="userSpaceOnUse">
<stop stop-color="white" stop-opacity="0"/>
<stop offset="1" stop-color="#CEC6FF"/>
</linearGradient>
<linearGradient id="paint1_linear_24_2110" x1="110.5" y1="47.9286" x2="110.5" y2="220" gradientUnits="userSpaceOnUse">
<stop stop-color="white" stop-opacity="0"/>
<stop offset="1" stop-color="#CEC6FF"/>
</linearGradient>
<linearGradient id="paint2_linear_24_2110" x1="95.6428" y1="48.7144" x2="95.6428" y2="220.633" gradientUnits="userSpaceOnUse">
<stop stop-color="#0600FF" stop-opacity="0.77"/>
<stop offset="1" stop-color="#0600FF" stop-opacity="0.03"/>
</linearGradient>
<linearGradient id="paint3_linear_24_2110" x1="125.357" y1="48.7144" x2="125.357" y2="220.633" gradientUnits="userSpaceOnUse">
<stop stop-color="#0600FF" stop-opacity="0.77"/>
<stop offset="1" stop-color="#0600FF" stop-opacity="0.03"/>
</linearGradient>
<linearGradient id="paint4_linear_24_2110" x1="111.561" y1="93.8164" x2="111.286" y2="123.969" gradientUnits="userSpaceOnUse">
<stop offset="0.130821" stop-color="white"/>
<stop offset="1" stop-color="#A4A2F7" stop-opacity="0"/>
</linearGradient>
</defs>
</svg>
